svg/notification_log.svg

<svg width="24" height="24" viewBox="0 0 24 24" xmlns="http://www.w3.org/2000/svg">
<path d="M16 2H8C7.46957 2 6.96086 2.21071 6.58579 2.58579C6.21071 2.96086 6 3.46957 6 4H15V9H20V20H6C6 20.5304 6.21071 21.0391 6.58579 21.4142C6.96086 21.7893 7.46957 22 8 22H20C20.5304 22 21.0391 21.7893 21.4142 21.4142C21.7893 21.0391 22 20.5304 22 20V8L16 2Z" />
<path d="M11.3245 14.4883L12.6906 15.822V16.4942H2V15.822L3.3553 14.4883V11.1597C3.28833 10.2186 3.55162 9.28363 4.09982 8.51576C4.64802 7.74789 5.44681 7.1952 6.35864 6.95288V6.4975C6.35864 6.23295 6.46373 5.97923 6.6508 5.79216C6.83787 5.60509 7.09159 5.5 7.35614 5.5C7.62069 5.5 7.87441 5.60509 8.06148 5.79216C8.24855 5.97923 8.35364 6.23295 8.35364 6.4975V6.95288C9.25835 7.20335 10.0485 7.75916 10.59 8.52597C11.1315 9.29278 11.391 10.2233 11.3245 11.1597V14.4883Z" />
<path d="M8.26662 18.1094C8.01652 18.3595 7.67731 18.5 7.32361 18.5C6.96992 18.5 6.63071 18.3595 6.3806 18.1094C6.1305 17.8593 5.99 17.5201 5.99 17.1664H8.65722C8.65722 17.5201 8.51672 17.8593 8.26662 18.1094Z" />
</svg>

<svg width="24" height="24" viewBox="0 0 24 24" xmlns="http://www.w3.org/2000/svg"><path d="M16 2H8a2 2 0 0 0-2 2h9v5h5v11H6a2 2 0 0 0 2 2h12a2 2 0 0 0 2-2V8l-6-6z"/><path d="M11.325 14.488l1.366 1.334v.672H2v-.672l1.355-1.334V11.16A4.055 4.055 0 0 1 6.36 6.953v-.456a.998.998 0 1 1 1.995 0v.456a4.066 4.066 0 0 1 2.97 4.207v3.328zM8.267 18.11a1.334 1.334 0 0 1-2.277-.944h2.667c0 .354-.14.693-.39.943z"/></svg>
